simple/Syringe.svg

<svg xmlns="http://www.w3.org/2000/svg" viewBox="0 0 36 36">
	<g transform="translate(35.556 0.444) rotate(-45)">
		<path d="M -12,-1 s 12,0.448 12,1 s -12,1 -12,1 a 1,1 0 01 0,-2 Z" fill="#CCD6DD"/>
	<path d="M -12.5,3 a 1.5,1.5 0 01 -1.5,-1.5 v-3 a 1.5,1.5 0 01 1.5,-1.5 c 0.828,0 3.936,1.465 3.936,2.293 v1.414 c 0,0.828 -3.108,2.293 -3.936,2.293 Z" fill="#ADD3E0"/>
	<g>
		<rect width="21" height="10" rx="2" x="-32.585" y="-5" fill="#C1E1EA"/>
		<path d="M -32.585,-3 a 2,2 0 01 2,-2 h17 a 2,2 0 01 2,2 h-21 Z" fill="#D2ECF3"/>
	</g>
	<rect width="17" height="6" x="-43" y="-3" fill="#CCD6DD"/>
	
	<g>
		<rect width="1.47361" height="10" x="-26.50307" y="-5" fill="#292F33"/>
		<rect width="1.47361" height="2" x="-26.50307" y="-5" fill="#66757F"/>
	</g>
	
	<g fill="#66757F">
		<path d="M -22.26042,3.95626 a 0.7368,0.7368 0 01 0.7368,-0.7368 a 0.7368,0.7368 0 01 0.7368,0.7368 v1.04374 h-1.4736 v-1.04374 Z"/>
		<path d="M -19.60877,3.95626 a 0.7368,0.7368 0 01 0.7368,-0.7368 a 0.7368,0.7368 0 01 0.7368,0.7368 v1.04374 h-1.4736 v-1.04374 Z"/>
		<path d="M -16.95712,3.95626 a 0.7368,0.7368 0 01 0.7368,-0.7368 a 0.7368,0.7368 0 01 0.7368,0.7368 v1.04374 h-1.4736 v-1.04374 Z"/>
	</g>
	<rect width="3" height="10" rx="1.5" x="-45.828" y="-5" fill="#99AAB5"/>
	<rect width="3" height="14" rx="1.5" x="-33.585" y="-7" fill="#99AAB5"/>
	</g>
</svg>


<!--<svg xmlns="http://www.w3.org/2000/svg" viewBox="0 0 36 36">
	old version
	<g transform="translate(33.5563 1.4437) rotate(45)">
		<g>
			<rect width="6" height="11" rx="2" x="-3" y="32" fill="#ccd6dd"/>
			<rect width="10" height="21" rx="2" x="-5" y="13" fill="#e1e8ed"/>
		</g>
		<g>
			<rect width="2" height="13" rx="1" x="-1" y="0" fill="#66757f"/>
			<rect width="6" height="3" rx="1.5" x="-3" y="11" fill="#99aab5"/>
		</g>
		<g>
			<rect width="14" height="3" rx="1.5" x="-7" y="32" fill="#99aab5"/>
			<rect width="10" height="3" rx="1.5" x="-5" y="40" fill="#99aab5"/>
		</g>
		<path d="M 5,26 c 0,1.105 -0.895,1 -2,1 h-6 c -1.105,0 -2,0.105 -2,-1 v-11 a 2,2 0 01 2,-2 h6 a 2,2 0 01 2,2 v11 Z" fill="#dd2e44"/>
	</g>
	<g fill="#dd2e44">
		blood..
		i believe these are scaled but also 2 of the points seem to just be automatically added inflection points and can be removed
		<path d="M 33.8828,16.502 c -0.374,-0.582 -0.887,-1.38 -1.535,-2.676 c -0.131,-0.263 -0.565,-0.263 -0.695,0 c -0.649,1.296 -1.162,2.094 -1.536,2.676 c -0.523,0.814 -0.838,1.306 -0.838,2.165 c 0,1.501 1.22,2.722 2.721,2.722 s 2.722,-1.221 2.722,-2.722 c 0,-0.859 -0.316,-1.351 -0.839,-2.165 Z"/>
		<path d="M 29.8828,25.502 c -0.374,-0.582 -0.887,-1.38 -1.535,-2.676 c -0.131,-0.263 -0.565,-0.263 -0.695,0 c -0.649,1.296 -1.162,2.094 -1.536,2.676 c -0.523,0.814 -0.838,1.307 -0.838,2.164 c 0,1.501 1.22,2.723 2.721,2.723 s 2.722,-1.222 2.722,-2.723 c 0,-0.857 -0.316,-1.35 -0.839,-2.164 Z"/>
	</g>
</svg>-->

<svg xmlns="http://www.w3.org/2000/svg" viewBox="0 0 36 36">
	<g transform="translate(35.556 0.444) rotate(-45)">
		<path d="M -12,-1 s 12,0.448 12,1 s -12,1 -12,1 a 1,1 0 01 0,-2 Z" fill="#CCD6DD"/>
	<path d="M -12.5,3 a 1.5,1.5 0 01 -1.5,-1.5 v-3 a 1.5,1.5 0 01 1.5,-1.5 c 0.828,0 3.936,1.465 3.936,2.293 v1.414 c 0,0.828 -3.108,2.293 -3.936,2.293 Z" fill="#ADD3E0"/>
	<g>
		<rect width="21" height="10" rx="2" x="-32.585" y="-5" fill="#C1E1EA"/>
		<path d="M -32.585,-3 a 2,2 0 01 2,-2 h17 a 2,2 0 01 2,2 h-21 Z" fill="#D2ECF3"/>
	</g>
	<rect width="17" height="6" x="-43" y="-3" fill="#CCD6DD"/>

	<rect width="1.47361" height="10" x="-26.50307" y="-5" fill="#292F33"/>
	<rect width="1.47361" height="2" x="-26.50307" y="-5" fill="#66757F"/>
	<g fill="#66757F">
	<path d=" M
-22.26042,3.95626
 A 0.7368,0.7368 0 01
-21.52362,3.21946
 A 0.7368,0.7368 0 01
-20.78682,3.95626
 L
-20.78682,5
 L
-22.26042,5
 L
-22.26042,3.95626
 Z"/>
	<path d=" M
-19.60877,3.95626
 A 0.7368,0.7368 0 01
-18.87197,3.21946
 A 0.7368,0.7368 0 01
-18.13517,3.95626
 L
-18.13517,5
 L
-19.60877,5
 L
-19.60877,3.95626
 Z"/>
	<path d=" M
-15.48352,3.95626
 L
-15.48352,5
 L
-16.95712,5
 L
-16.95712,3.95626
 A 0.7368,0.7368 0 01
-16.22032,3.21946
 A 0.7368,0.7368 0 01
-15.48352,3.95626
Z"/>
	</g>
	<rect width="3" height="10" rx="1.5" x="-45.828" y="-5" fill="#99AAB5"/>
	<rect width="3" height="14" rx="1.5" x="-33.585" y="-7" fill="#99AAB5"/>
	</g>
</svg>


<!--<svg xmlns="http://www.w3.org/2000/svg" viewBox="0 0 36 36">
	old version
	<g transform="translate(33.5563 1.4437) rotate(45)">
		<g>
			<rect width="6" height="11" rx="2" x="-3" y="32" fill="#ccd6dd"/>
			<rect width="10" height="21" rx="2" x="-5" y="13" fill="#e1e8ed"/>
		</g>
		<g>
			<rect width="2" height="13" rx="1" x="-1" y="0" fill="#66757f"/>
			<rect width="6" height="3" rx="1.5" x="-3" y="11" fill="#99aab5"/>
		</g>
		<g>
			<rect width="14" height="3" rx="1.5" x="-7" y="32" fill="#99aab5"/>
			<rect width="10" height="3" rx="1.5" x="-5" y="40" fill="#99aab5"/>
		</g>
		<path d="M 5,26 c 0,1.105 -0.895,1 -2,1 h-6 c -1.105,0 -2,0.105 -2,-1 v-11 a 2,2 0 01 2,-2 h6 a 2,2 0 01 2,2 v11 Z" fill="#dd2e44"/>
	</g>
	<g fill="#dd2e44">
		blood..
		i believe these are scaled but also 2 of the points seem to just be automatically added inflection points and can be removed
		<path d="M 33.8828,16.502 c -0.374,-0.582 -0.887,-1.38 -1.535,-2.676 c -0.131,-0.263 -0.565,-0.263 -0.695,0 c -0.649,1.296 -1.162,2.094 -1.536,2.676 c -0.523,0.814 -0.838,1.306 -0.838,2.165 c 0,1.501 1.22,2.722 2.721,2.722 s 2.722,-1.221 2.722,-2.722 c 0,-0.859 -0.316,-1.351 -0.839,-2.165 Z"/>
		<path d="M 29.8828,25.502 c -0.374,-0.582 -0.887,-1.38 -1.535,-2.676 c -0.131,-0.263 -0.565,-0.263 -0.695,0 c -0.649,1.296 -1.162,2.094 -1.536,2.676 c -0.523,0.814 -0.838,1.307 -0.838,2.164 c 0,1.501 1.22,2.723 2.721,2.723 s 2.722,-1.222 2.722,-2.723 c 0,-0.857 -0.316,-1.35 -0.839,-2.164 Z"/>
	</g>
</svg>-->
